;FLAVOR:Marlin
;TIME:2880
;Filament used: 3.28194m
;Layer height: 0.2
;MINX:65.876
;MINY:77.945
;MINZ:0.2
;MAXX:155.751
;MAXY:142.236
;MAXZ:15.4
;TARGET_MACHINE.NAME:Creality Ender-3 V3 SE
;Generated with Cura_SteamEngine 5.7.2
M104 S200
M105
M109 S200
M82 ;absolute extrusion mode
M220 S100 ;Reset Feedrate
M221 S100 ;Reset Flowrate

G28 ;Home

M420 S1; Use saved mesh leveling data

G92 E0 ;Reset Extruder
G1 Z2.0 F3000 ;Move Z Axis up
G1 X-3 Y20 Z0.28 F5000.0 ;Move to start position
M190 S60 ; Set bed temperature and wait
M109 S200 ; Set hotend temperature and wait
G1 X-3 Y100.0 Z0.28 F1500.0 E15 ;Draw the first line
G1 X-2 Y100.0 Z0.28 F5000.0 ;Move to side a little
G1 X-2 Y20 Z0.28 F1500.0 E30 ;Draw the second line
G92 E0 ;Reset Extruder
G1 E-1.0000 F1800 ;Retract a bit
G1 Z2.0 F3000 ;Move Z Axis up
G1 E0.0000 F1800 

G92 E0
G92 E0
G1 F2400 E-0.8
;LAYER_COUNT:77
;LAYER:0
M107
G0 F9000 X76.643 Y82.267 Z0.2
;TYPE:SKIRT
G1 F2400 E0
G1 F1800 X77.367 Y81.615 E0.03241
G1 X78.116 Y81.051 E0.06359
G1 X78.972 Y80.518 E0.09713
G1 X79.81 Y80.093 E0.12838
G1 X80.747 Y79.719 E0.16194
G1 X81.681 Y79.44 E0.19436
G1 X82.565 Y79.257 E0.22438
G1 X84.023 Y79.115 E0.27311
G1 X84.662 Y79.1 E0.29436
G1 X88.616 Y79.1 E0.42588
G1 X91.2 Y79.063 E0.51183
G1 X93.765 Y78.954 E0.59722
G1 X96.244 Y78.778 E0.67988
G1 X98.713 Y78.534 E0.7624
G1 X102.367 Y78.047 E0.885
G1 X103.342 Y77.951 E0.91759
G1 X104.462 Y77.945 E0.95484
G1 X105.208 Y77.982 E0.97968
G1 X106.616 Y78.071 E1.02661
G1 X109.104 Y78.16 E1.10941
G1 X111.637 Y78.18 E1.19366
G1 X114.156 Y78.127 E1.27746
G1 X117.09 Y77.982 E1.37517
G1 X117.993 Y77.977 E1.4052
G1 X119.219 Y78.088 E1.44615
G1 X121.607 Y78.443 E1.52644
G1 X124.156 Y78.753 E1.61185
G1 X126.636 Y78.982 E1.69468
G1 X129.152 Y79.143 E1.77854
G1 X131.698 Y79.234 E1.86327
G1 X133.614 Y79.255 E1.927
G1 X136.841 Y79.256 E2.03433
G1 X137.559 Y79.267 E2.05822
G1 X138.547 Y79.327 E2.09114
G1 X139.511 Y79.473 E2.12357
G1 X140.458 Y79.704 E2.15599
G1 X141.314 Y79.992 E2.18603
G1 X142.27 Y80.411 E2.22074
G1 X143.123 Y80.882 E2.25315
G1 X143.93 Y81.427 E2.28554
G1 X144.685 Y82.04 E2.31789
G1 X145.386 Y82.718 E2.35032
G1 X146.022 Y83.456 E2.38273
G1 X146.589 Y84.246 E2.41507
G1 X147.071 Y85.056 E2.44642
G1 X147.587 Y86.158 E2.48689
G1 X148.576 Y88.612 E2.57489
G1 X149.585 Y90.927 E2.65888
G1 X150.654 Y93.206 E2.74261
G1 X151.763 Y95.401 E2.8244
G1 X153.381 Y98.364 E2.93669
G1 X153.878 Y99.24 E2.97019
G1 X154.32 Y100.108 E3.00258
G1 X154.668 Y100.969 E3.03347
G1 X154.828 Y101.453 E3.05043
G1 X155.091 Y102.321 E3.08059
G1 X155.357 Y103.269 E3.11334
G1 X155.573 Y104.218 E3.14571
G1 X155.706 Y105.183 E3.17811
G1 X155.751 Y106.154 E3.21044
G1 X155.714 Y107.086 E3.24146
G1 X155.642 Y107.725 E3.26285
G1 X155.255 Y110.461 E3.35476
G1 X154.97 Y113.01 E3.44007
G1 X154.717 Y116.146 E3.54471
G1 X154.676 Y116.79 E3.56617
G1 X154.579 Y117.688 E3.59621
G1 X154.319 Y118.929 E3.63838
G1 X154.093 Y119.763 E3.66712
G1 X153.793 Y120.776 E3.70226
G1 X153.495 Y121.629 E3.73231
G1 X153.066 Y122.577 E3.76692
G1 X152.672 Y123.285 E3.79387
G1 X152.265 Y123.95 E3.8198
G1 X150.918 Y126.23 E3.90788
G1 X149.691 Y128.451 E3.99228
G1 X148.548 Y130.665 E4.07515
G1 X148.23 Y131.327 E4.09958
G1 X148.103 Y131.563 E4.10849
G1 X147.565 Y132.665 E4.14928
G1 X147.097 Y133.518 E4.18164
G1 X146.551 Y134.333 E4.21427
G1 X145.847 Y135.195 E4.25128
G1 X144.217 Y136.991 E4.33195
G1 X143.493 Y137.733 E4.36643
G1 X142.773 Y138.39 E4.39885
G1 X142.056 Y138.939 E4.42889
G1 X141.333 Y139.407 E4.45753
G1 X140.25 Y140.048 E4.49939
G1 X139.528 Y140.462 E4.52707
G1 X138.725 Y140.876 E4.55712
G1 X137.767 Y141.267 E4.59153
G1 X137.127 Y141.471 E4.61387
G1 X136.567 Y141.632 E4.63326
G1 X135.689 Y141.843 E4.66329
G1 X135.157 Y141.935 E4.68125
G1 X134.189 Y142.076 E4.71378
G1 X133.474 Y142.165 E4.73775
G1 X132.503 Y142.236 E4.77013
G1 X131.594 Y142.224 E4.80036
G1 X130.649 Y142.173 E4.83184
G1 X129.561 Y142.098 E4.86811
G1 X126.996 Y141.995 E4.95349
G1 X124.531 Y141.964 E5.03549
G1 X122.001 Y142.006 E5.11965
G1 X119.322 Y142.124 E5.20884
G1 X118.306 Y142.184 E5.24269
G1 X117.182 Y142.189 E5.28007
G1 X116.223 Y142.141 E5.31201
G1 X115.208 Y142.073 E5.34584
G1 X112.631 Y141.97 E5.43162
G1 X110.165 Y141.94 E5.51365
G1 X107.609 Y141.983 E5.59867
G1 X104.73 Y142.112 E5.69453
G1 X103.545 Y142.099 E5.73394
G1 X101.218 Y141.945 E5.81151
G1 X98.679 Y141.844 E5.89602
G1 X96.218 Y141.816 E5.97788
G1 X93.652 Y141.86 E6.06324
G1 X91.173 Y141.973 E6.14578
G1 X90.646 Y142.013 E6.16335
G1 X90.427 Y142.02 E6.17064
G1 X89.13 Y142.105 E6.21387
G1 X88.139 Y142.123 E6.24684
G1 X87.167 Y142.055 E6.27925
G1 X86.208 Y141.901 E6.31155
G1 X85.344 Y141.687 E6.34116
G1 X84.778 Y141.521 E6.36078
G1 X83.858 Y141.205 E6.39313
G1 X82.956 Y140.802 E6.42599
G1 X81.886 Y140.186 E6.46705
G1 X79.302 Y138.484 E6.56997
G1 X78.501 Y137.899 E6.60296
G1 X77.481 Y136.972 E6.6488
G1 X77.086 Y136.563 E6.66771
G1 X76.488 Y135.885 E6.69778
G1 X76.145 Y135.44 E6.71647
G1 X75.254 Y134.219 E6.76674
G1 X74.384 Y132.994 E6.81671
G1 X73.858 Y132.175 E6.84909
G1 X73.406 Y131.312 E6.88149
G1 X73.035 Y130.421 E6.91359
G1 X72.817 Y129.758 E6.9368
G1 X72.557 Y128.856 E6.96803
G1 X71.853 Y126.147 E7.06112
G1 X71.153 Y123.747 E7.14427
G1 X70.372 Y121.323 E7.22897
G1 X69.534 Y118.949 E7.31271
G1 X68.63 Y116.61 E7.39611
G1 X67.832 Y114.682 E7.46551
G1 X67.561 Y113.951 E7.49144
G1 X67.352 Y113.288 E7.51456
G1 X66.969 Y111.954 E7.56073
G1 X66.744 Y111.006 E7.59313
G1 X66.612 Y110.112 E7.62319
G1 X66.561 Y109.448 E7.64534
G1 X66.485 Y107.278 E7.71756
G1 X66.335 Y104.758 E7.80152
G1 X66.111 Y102.21 E7.8866
G1 X65.935 Y100.562 E7.94172
G1 X65.876 Y99.591 E7.97408
G1 X65.899 Y98.688 E8.00412
G1 X66.02 Y97.641 E8.03917
G1 X66.272 Y96.488 E8.07843
G1 X66.604 Y95.307 E8.11923
G1 X66.83 Y94.582 E8.14449
G1 X67.161 Y93.666 E8.17688
G1 X67.556 Y92.816 E8.20806
G1 X68.06 Y91.942 E8.24161
G1 X68.599 Y91.173 E8.27285
G1 X69.269 Y90.381 E8.30735
G1 X70.11 Y89.479 E8.34837
G1 X70.859 Y88.709 E8.3841
G1 X72.596 Y86.873 E8.46816
G1 X74.288 Y84.98 E8.55261
G1 X75.98 Y82.981 E8.63971
G1 X76.643 Y82.267 E8.67212
G0 F9000 X76.911 Y82.564
G1 F1800 X77.608 Y81.935 E8.70335
G1 X78.357 Y81.371 E8.73453
G1 X79.153 Y80.875 E8.76573
G1 X79.991 Y80.45 E8.79698
G1 X80.862 Y80.102 E8.82817
G1 X81.762 Y79.832 E8.85943
G1 X82.646 Y79.649 E8.88945
G1 X84.032 Y79.515 E8.93577
G1 X84.671 Y79.5 E8.95702
G1 X88.622 Y79.5 E9.08844
G1 X91.217 Y79.463 E9.17475
G1 X93.782 Y79.354 E9.26014
G1 X96.275 Y79.177 E9.34327
G1 X98.765 Y78.931 E9.42649
G1 X101.958 Y78.511 E9.53361
G1 X102.407 Y78.445 E9.5487
G1 X103.344 Y78.351 E9.58002
G1 X104.464 Y78.345 E9.61727
G1 X105.183 Y78.381 E9.64122
G1 X106.602 Y78.471 E9.68851
G1 X109.09 Y78.56 E9.77131
G1 X111.642 Y78.58 E9.85619
G1 X114.176 Y78.527 E9.94049
G1 X117.092 Y78.382 E10.0376
G1 X117.995 Y78.377 E10.06763
G1 X119.16 Y78.484 E10.10655
G1 X121.548 Y78.839 E10.18684
G1 X124.107 Y79.15 E10.27258
G1 X126.61 Y79.381 E10.35619
G1 X129.138 Y79.543 E10.44044
G1 X131.684 Y79.634 E10.52517
G1 X133.61 Y79.655 E10.58924
G1 X136.835 Y79.656 E10.6965
G1 X137.535 Y79.666 E10.71979
G1 X138.488 Y79.723 E10.75154
G1 X139.417 Y79.862 E10.78278
G1 X140.33 Y80.083 E10.81403
G1 X141.186 Y80.371 E10.84406
G1 X142.077 Y80.761 E10.87641
G1 X142.9 Y81.214 E10.90766
G1 X143.678 Y81.738 E10.93886
G1 X144.407 Y82.328 E10.97005
G1 X145.083 Y82.98 E11.00129
G1 X145.697 Y83.69 E11.03251
G1 X146.245 Y84.451 E11.0637
G1 X146.727 Y85.261 E11.09505
G1 X147.216 Y86.307 E11.13345
G1 X148.209 Y88.772 E11.22184
G1 X149.221 Y91.093 E11.30606
G1 X150.297 Y93.386 E11.3903
G1 X151.412 Y95.593 E11.47254
G1 X153.033 Y98.562 E11.58505
G1 X153.522 Y99.422 E11.61796
G1 X153.949 Y100.258 E11.64918
G1 X154.288 Y101.095 E11.67921
G1 X154.445 Y101.569 E11.69582
G1 X154.706 Y102.429 E11.72571
G1 X154.967 Y103.358 E11.75781
G1 X155.177 Y104.273 E11.78903
G1 X155.306 Y105.202 E11.82023
G1 X155.351 Y106.139 E11.85143
G1 X155.316 Y107.042 E11.88149
G1 X155.246 Y107.669 E11.90247
G1 X154.857 Y110.417 E11.99478
G1 X154.572 Y112.966 E12.08009
G1 X154.318 Y116.114 E12.18513
G1 X154.278 Y116.747 E12.20623
G1 X154.181 Y117.645 E12.23627
G1 X153.933 Y118.825 E12.27637
G1 X153.71 Y119.649 E12.30476
G1 X153.415 Y120.644 E12.33928
G1 X153.117 Y121.497 E12.36933
G1 X152.716 Y122.382 E12.40165
G1 X152.322 Y123.09 E12.4286
G1 X151.924 Y123.741 E12.45398
G1 X150.569 Y126.036 E12.54262
G1 X149.341 Y128.257 E12.62703
G1 X148.187 Y130.492 E12.71069
G1 X147.878 Y131.137 E12.73448
G1 X147.751 Y131.373 E12.74339
G1 X147.214 Y132.473 E12.78411
G1 X146.764 Y133.296 E12.8153
G1 X146.241 Y134.08 E12.84665
G1 X145.551 Y134.926 E12.88296
G1 X143.931 Y136.712 E12.96316
G1 X143.223 Y137.438 E12.99689
G1 X142.53 Y138.072 E13.02813
G1 X141.813 Y138.621 E13.05816
G1 X141.129 Y139.063 E13.08525
G1 X140.051 Y139.701 E13.12691
G1 X139.345 Y140.106 E13.15398
G1 X138.542 Y140.52 E13.18403
G1 X137.645 Y140.886 E13.21625
G1 X137.017 Y141.087 E13.23818
G1 X136.474 Y141.243 E13.25698
G1 X135.596 Y141.454 E13.28701
G1 X135.099 Y141.539 E13.30378
G1 X134.139 Y141.679 E13.33605
G1 X133.444 Y141.766 E13.35934
G1 X132.508 Y141.836 E13.39056
G1 X131.616 Y141.825 E13.42023
G1 X130.677 Y141.774 E13.45151
G1 X129.577 Y141.698 E13.48818
G1 X127.012 Y141.595 E13.57356
G1 X124.529 Y141.564 E13.65615
G1 X121.983 Y141.606 E13.74085
G1 X119.304 Y141.725 E13.83004
G1 X118.304 Y141.784 E13.86336
G1 X117.18 Y141.789 E13.90074
G1 X116.25 Y141.742 E13.93171
G1 X115.224 Y141.673 E13.96591
G1 X112.647 Y141.57 E14.05169
G1 X110.163 Y141.54 E14.13432
G1 X107.591 Y141.583 E14.21988
G1 X104.734 Y141.712 E14.315
G1 X103.571 Y141.7 E14.35368
G1 X101.234 Y141.545 E14.43158
G1 X98.695 Y141.444 E14.51609
G1 X96.216 Y141.416 E14.59855
G1 X93.634 Y141.46 E14.68444
G1 X91.155 Y141.573 E14.76698
G1 X90.633 Y141.613 E14.78439
G1 X90.414 Y141.62 E14.79168
G1 X89.122 Y141.705 E14.83474
G1 X88.166 Y141.724 E14.86655
G1 X87.23 Y141.66 E14.89775
G1 X86.304 Y141.513 E14.92894
G1 X85.456 Y141.303 E14.95799
G1 X84.908 Y141.143 E14.97698
G1 X84.02 Y140.839 E15.0082
G1 X83.156 Y140.455 E15.03965
G1 X82.086 Y139.839 E15.08071
G1 X79.537 Y138.16 E15.18223
G1 X78.77 Y137.603 E15.21376
G1 X77.75 Y136.676 E15.2596
G1 X77.386 Y136.298 E15.27705
G1 X76.788 Y135.62 E15.30712
G1 X76.468 Y135.204 E15.32458
G1 X75.58 Y133.987 E15.37469
G1 X74.72 Y132.777 E15.42406
G1 X74.212 Y131.989 E15.45524
G1 X73.775 Y131.158 E15.48647
G1 X73.415 Y130.296 E15.51754
G1 X73.201 Y129.647 E15.54027
G1 X72.944 Y128.755 E15.57114
G1 X72.24 Y126.046 E15.66424
G1 X71.534 Y123.624 E15.74815
G1 X70.753 Y121.2 E15.83285
G1 X69.911 Y118.816 E15.91694
G1 X69 Y116.457 E16.00105
G1 X68.207 Y114.543 E16.06996
G1 X67.942 Y113.83 E16.09526
G1 X67.736 Y113.178 E16.118
G1 X67.358 Y111.861 E16.16357
G1 X67.14 Y110.948 E16.19479
G1 X67.008 Y110.054 E16.22485
G1 X66.961 Y109.43 E16.24566
G1 X66.932 Y108.777 E16.2674
G1 X66.885 Y107.266 E16.31768
G1 X66.734 Y104.734 E16.40205
G1 X66.509 Y102.167 E16.48775
G1 X66.334 Y100.537 E16.54228
G1 X66.276 Y99.601 E16.57347
G1 X66.299 Y98.698 E16.60352
G1 X66.411 Y97.726 E16.63606
G1 X66.657 Y96.596 E16.67452
G1 X66.986 Y95.426 E16.71495
G1 X67.206 Y94.718 E16.7396
G1 X67.524 Y93.835 E16.77082
G1 X67.919 Y92.985 E16.80199
G1 X68.388 Y92.172 E16.83321
G1 X68.927 Y91.403 E16.86445
G1 X69.561 Y90.654 E16.89708
G1 X70.397 Y89.758 E16.93784
G1 X71.146 Y88.988 E16.97357
G1 X72.887 Y87.148 E17.05782
G1 X74.586 Y85.247 E17.14262
G1 X76.273 Y83.253 E17.22949
G1 X76.911 Y82.564 E17.26073
G0 F9000 X77.18 Y82.86
G1 F1800 X77.849 Y82.254 E17.29075
G1 X78.569 Y81.71 E17.32076
G1 X79.335 Y81.231 E17.35081
G1 X80.14 Y80.821 E17.38086
G1 X80.978 Y80.485 E17.41089
G1 X81.843 Y80.224 E17.44094
G1 X82.727 Y80.041 E17.47096
G1 X84.041 Y79.915 E17.51487
G1 X84.68 Y79.9 E17.53613
G1 X88.628 Y79.9 E17.66744
G1 X91.234 Y79.863 E17.75412
G1 X93.799 Y79.754 E17.83951
G1 X96.306 Y79.576 E17.9231
G1 X98.817 Y79.328 E18.00703
G1 X102.01 Y78.908 E18.11414
G1 X102.448 Y78.843 E18.12887
G1 X103.346 Y78.751 E18.15889
G1 X104.444 Y78.745 E18.19541
G1 X105.158 Y78.78 E18.21919
G1 X106.588 Y78.871 E18.26685
G1 X109.076 Y78.96 E18.34965
G1 X111.647 Y78.98 E18.43517
G1 X114.196 Y78.927 E18.51996
G1 X117.094 Y78.782 E18.61647
G1 X117.997 Y78.777 E18.64651
G1 X119.101 Y78.88 E18.68339
G1 X121.489 Y79.235 E18.76368
G1 X124.058 Y79.547 E18.84976
G1 X126.584 Y79.78 E18.93413
G1 X129.124 Y79.943 E19.01878
G1 X131.67 Y80.034 E19.10352
G1 X133.606 Y80.055 E19.16791
G1 X136.829 Y80.056 E19.27511
G1 X137.529 Y80.066 E19.2984
G1 X138.43 Y80.119 E19.32841
G1 X139.324 Y80.251 E19.35847
G1 X140.202 Y80.462 E19.38851
G1 X141.058 Y80.75 E19.41854
G1 X141.885 Y81.112 E19.44857
G1 X142.677 Y81.546 E19.47861
G1 X143.427 Y82.049 E19.50864
G1 X144.13 Y82.616 E19.53868
G1 X144.781 Y83.242 E19.56872
G1 X145.373 Y83.924 E19.59876
G1 X145.902 Y84.656 E19.6288
G1 X146.365 Y85.431 E19.65882
G1 X146.845 Y86.456 E19.69647
G1 X147.842 Y88.932 E19.78525
G1 X148.854 Y91.253 E19.86946
G1 X149.94 Y93.566 E19.95445
G1 X151.061 Y95.785 E20.03714
G1 X152.685 Y98.76 E20.14987
G1 X153.166 Y99.604 E20.18218
G1 X153.578 Y100.408 E20.21223
G1 X153.917 Y101.245 E20.24226
G1 X154.062 Y101.685 E20.25767
G1 X154.321 Y102.537 E20.28729
G1 X154.577 Y103.448 E20.31876
G1 X154.781 Y104.328 E20.34881
G1 X154.906 Y105.222 E20.37883
G1 X154.951 Y106.124 E20.40887
G1 X154.916 Y107.027 E20.43893
G1 X154.85 Y107.613 E20.45854
G1 X154.459 Y110.373 E20.55125
G1 X154.174 Y112.922 E20.63656
G1 X153.919 Y116.082 E20.74201
G1 X153.88 Y116.704 E20.76274
G1 X153.783 Y117.602 E20.79278
G1 X153.547 Y118.721 E20.83081
G1 X153.327 Y119.535 E20.85886
G1 X153.037 Y120.512 E20.89275
G1 X152.739 Y121.365 E20.92281
G1 X152.367 Y122.187 E20.95282
G1 X151.98 Y122.882 E20.97927
G1 X151.583 Y123.533 E21.00464
G1 X150.219 Y125.842 E21.09383
G1 X148.991 Y128.063 E21.17824
G1 X147.826 Y130.319 E21.26269
G1 X147.517 Y130.964 E21.28648
G1 X147.399 Y131.184 E21.29478
G1 X146.863 Y132.282 E21.33542
G1 X146.431 Y133.075 E21.36546
G1 X145.931 Y133.827 E21.39549
G1 X145.255 Y134.657 E21.43109
G1 X143.645 Y136.433 E21.51082
G1 X142.953 Y137.143 E21.5438
G1 X142.287 Y137.754 E21.57386
G1 X141.57 Y138.303 E21.6039
G1 X140.925 Y138.719 E21.62942
G1 X139.852 Y139.354 E21.67089
G1 X139.162 Y139.75 E21.69735
G1 X138.359 Y140.164 E21.7274
G1 X137.523 Y140.505 E21.75743
G1 X136.907 Y140.703 E21.77895
G1 X136.381 Y140.854 E21.79715
G1 X135.503 Y141.065 E21.82719
G1 X135.041 Y141.143 E21.84277
G1 X134.089 Y141.282 E21.87477
G1 X133.413 Y141.367 E21.89743
G1 X132.513 Y141.436 E21.92745
G1 X131.638 Y141.426 E21.95656
G1 X130.705 Y141.375 E21.98764
G1 X129.593 Y141.298 E22.02471
G1 X127.028 Y141.195 E22.11009
G1 X124.527 Y141.164 E22.19328
G1 X121.965 Y141.206 E22.2785
G1 X119.286 Y141.326 E22.3677
G1 X118.302 Y141.384 E22.40048
G1 X117.178 Y141.389 E22.43787
G1 X116.277 Y141.343 E22.46787
G1 X115.24 Y141.273 E22.50244
G1 X112.663 Y141.17 E22.58822
G1 X110.161 Y141.14 E22.67145
G1 X107.573 Y141.183 E22.75753
G1 X104.738 Y141.312 E22.85192
G1 X103.598 Y141.301 E22.88984
G1 X101.25 Y141.145 E22.96811
G1 X98.711 Y141.044 E23.05262
G1 X96.213 Y141.016 E23.13571
G1 X93.616 Y141.06 E23.2221
G1 X91.137 Y141.173 E23.30464
G1 X90.62 Y141.213 E23.32189
G1 X90.401 Y141.22 E23.32917
G1 X89.096 Y141.306 E23.37267
G1 X88.193 Y141.325 E23.40271
G1 X87.292 Y141.265 E23.43275
G1 X86.4 Y141.125 E23.46278
G1 X85.568 Y140.919 E23.49129
G1 X85.037 Y140.764 E23.50968
G1 X84.182 Y140.473 E23.53972
G1 X83.356 Y140.108 E23.56976
G1 X82.286 Y139.492 E23.61082
G1 X79.771 Y137.836 E23.71098
G1 X79.039 Y137.307 E23.74102
G1 X78.038 Y136.398 E23.78599
G1 X77.686 Y136.033 E23.80285
G1 X77.088 Y135.355 E23.83292
G1 X76.791 Y134.968 E23.84915
G1 X75.906 Y133.755 E23.89909
G1 X75.056 Y132.56 E23.94786
G1 X74.566 Y131.802 E23.97788
G1 X74.144 Y131.003 E24.00794
G1 X73.795 Y130.17 E24.03798
G1 X73.585 Y129.536 E24.06019
G1 X73.331 Y128.654 E24.09072
G1 X72.627 Y125.945 E24.18381
G1 X71.915 Y123.501 E24.26848
G1 X71.134 Y121.077 E24.35318
G1 X70.288 Y118.683 E24.43763
G1 X69.37 Y116.304 E24.52245
G1 X68.582 Y114.403 E24.59089
