;FLAVOR:Marlin
;TIME:2872.47
;Filament used:5.24606m
;Material Diameter:1.75
;Material Density:1.24
;Filament Cost:0.312933
;Filament Weight:15.646630
;Filament Length:5.246058
;Layer height:0.2
;MINX:0.418
;MINY:0.622
;MINZ:0.2
;MAXX:157.27
;MAXY:179.77
;MAXZ:20.401
;OuterWall Time:540.642
;InnerWall Time:562.975
;Skin Time:1225.38
;Support Time:0
;SkirtBrim Time:0
;Infill Time:272.214
;Support Infills Time:0
;Combing Time:73.0878
;Retraction Time:198.171
;PrimeTower Time:0

;;;;;;;;;;;;;;;;;;;;;;;;;;;;;;;;;;;;;;;;;;;;;;;;;;;;;;;;;;;;;;;;;;;;;;;;;;;;
;Creality Print GCode Generated by CXEngine
;CRSLICE_GIT_HASH:58ee74d
;Creality Print Version : V4.3.8.6984
;CXEngine Release Time:2023-12-08 15:31:58
;Gcode Generated Time:2024-06-05 19:49:42
;----------Machine Config--------------
;Machine Name:Ender-3 V3 SE
;Machine Height:250
;Machine Width:220
;Machine Depth:220
;Material Type:PLA
;Material Name:Generic-PLA_1.75
;Number of Extruders:1
;ExtruderParams[0] Nozzle Diameter:1000
;----------Profile Config---------------
;Wall Thickness:0.8
;Top/Bottom Thickness:0.8
;Out Wall Line Width:0.42
;Inner Wall Line Width:0.45
;Inital Height:200
;Wall Line Count:3
;Infill Line Distance:0.9
;Infill Pattern:grid
;Infill Sparse Density:100
;Infill Wipe Distance:0.11
;Print Temperature:210
;Bed Temperature:45
;Support Enable:false
;Support Density:15
;Support Angle:60
;Adhesion Type:autobrim
;machine is belt:false
;machine belt offset:10
;machine belt offset Y:0
;Raft Base Line Spacing:1.6
;Wait Heatup Sync:true
;Enable Ironing:true
;Material Type:PLA
;Max volumetric speed:18
;Preview Img Type:png
;Screen Size:Sermoon D3
;----------Shell Config----------------
;Outer Wall Wipe Distance:2000
;Outer Inset First:false
;Infill Before Walls:false
;Infill Overlap:0
;Fill Gaps Between Walls:everywhere
;Minimum Infill Area:30
;Top Surface Skin Layer:2
;Top Layers:3
;Z Seam Alignment:sharpest_corner
;Seam Corner Preference:z_seam_corner_inner
;Z Seam X:110
;Z Seam Y:220
;Horizontal Expansion:0
;Top/Bottom Pattern:lines
;Ironing Pattern:zigzag
;Vase Model:false
;----------Support Config----------------
;Support Type:everywhere
;Support Pattern:zigzag
;Support Infill Layer Thickness:0.2
;Minimum Support Area:1
;Enable Support Roof:true
;Support Roof Thickness:0.8
;Support Roof Pattern:lines
;Connect Support Lines:0
;Connect Support ZigZags:1
;Minimum Support X/Y Distance:0.2
;Support Line Distance:2.67
; ---------PrintSpeed & Travel----------
;Enable Print Cool:true
;Avoid Printed Parts Traveling:true
;Enable Retraction:true
;Retraction Distance:1.2
;Retraction Speed:30
;Retraction Prime Speed:30
;Maximum Retraction Count:100
;Minimum Extrusion Distance Window:0.8
;Z Hop When Retracted:true
;Z Hop Height:0.4
;Retract Before Outer Wall:true

;Outer Wall Speed:100
;Inner Wall Speed:100
;Infill Speed:200
;Top/Bottom Speed:100
;Travel Speed:150
;Initial Layer Speed:30
;Skirt/Brim Speed:25
;Prime Tower Speed:200
;Outer Wall Acceleration:1000
;Inner Wall Acceleration:2000
;Infill Acceleration:2500
;Top/Bottom Acceleration:2500
;Travel Acceleration:2500
;Initial Layer Print Acceleration:500
;Initial Layer Travel Acceleration:500
;Skirt/Brim Acceleration:500
;Combing Mode:off
; --------SpecialModel&Mesh Fixes--------
;Union Overlapping Volum:true
;Remove All Holes:false
;Maximum Travel Resolution:0.19
;Maximum Deviation:0.05
;Maximum Model Angle:0.872665
;IS Mold Print:false
;Make Overhang Printable:false
;Enable Coasting:false
;Coasting Volumes:0.064
;Coasting Speed:0.9
;Raft AirGap:0.25
;Layer0 ZOverLap:0.13
;Adaptive Layers:0
;---------------------End of Head--------------------------
M140 S45
M105
M190 S45
M104 S210
M82 ;absolute extrusion mode
M220 S100 ;Reset Feedrate
M221 S100 ;Reset Flowrate

G28 ;Home

G92 E0 ;Reset Extruder
G1 Z2.0 F3000 ;Move Z Axis up
G1 X-2.1 Y20 Z0.28 F5000.0 ;Move to start position
M109 S210.000000
G1 X-2.1 Y145.0 Z0.28 F1500.0 E15 ;Draw the first line
G1 X-2.4 Y145.0 Z0.28 F5000.0 ;Move to side a little
G1 X-2.4 Y20 Z0.28 F1500.0 E30 ;Draw the second line
G92 E0  ;Reset Extruder
G1 E-1.0000 F1800 ;Retract a bit
G1 Z2.0 F3000 ;Move Z Axis up
G1 E0.0000 F1800 

G92 E0
G92 E0
G1 F1800 E-1.2
;LAYER_COUNT:77

;LAYER:0
M106 S0
M204 S500
;;retract;;
G1 F1800 E0
G1 F1800 E-1.2
G0 F1125 X0.418 Y0.622 Z20.401
;MESH:0_1
G0 X64.65 Y96.008 Z0.6
;TYPE:WALL-OUTER
G1 F600 Z0.2
G1 F1800 E0
G1 X64.678 Y95.542 E0.01614
G1 X64.759 Y95.09 E0.03202
G1 X64.895 Y94.65 E0.04794
G1 X65.082 Y94.227 E0.06393
G1 X65.331 Y93.808 E0.08078
G1 X65.615 Y93.446 E0.09669
G1 X65.94 Y93.118 E0.11265
G1 X66.324 Y92.816 E0.12954
G1 X66.693 Y92.592 E0.14447
G1 X67.144 Y92.384 E0.16164
G1 X67.575 Y92.248 E0.17726
G1 X68.063 Y92.159 E0.19442
G1 X68.528 Y92.131 E0.21052
G1 X85.389 Y92.131 E0.79347
G1 X85.39 Y123.992 E1.89503
G1 X85.362 Y124.458 E1.91117
G1 X85.281 Y124.91 E1.92705
G1 X85.145 Y125.35 E1.94297
G1 X84.958 Y125.773 E1.95896
G1 X84.709 Y126.192 E1.97581
G1 X84.425 Y126.554 E1.99172
G1 X84.1 Y126.882 E2.00768
G1 X83.716 Y127.184 E2.02457
G1 X83.347 Y127.408 E2.0395
G1 X82.896 Y127.616 E2.05667
G1 X82.465 Y127.752 E2.0723
G1 X81.977 Y127.84 E2.08944
G1 X81.512 Y127.869 E2.10555
G1 X68.528 Y127.869 E2.55446
G1 X68.062 Y127.842 E2.57059
G1 X67.604 Y127.759 E2.58669
G1 X67.168 Y127.625 E2.60246
G1 X66.743 Y127.436 E2.61854
G1 X66.323 Y127.185 E2.63546
G1 X65.962 Y126.901 E2.65134
G1 X65.634 Y126.576 E2.6673
G1 X65.332 Y126.19 E2.68424
G1 X65.11 Y125.823 E2.69907
G1 X64.904 Y125.376 E2.71609
G1 X64.766 Y124.939 E2.73194
G1 X64.679 Y124.457 E2.74887
G1 X64.651 Y123.994 E2.76491
G1 X64.65 Y96.008 E3.73249
G0 F1125 X65.128 Y96.023
;TYPE:WALL-INNER
G1 F1800 X65.154 Y95.598 E3.74914
G1 X65.225 Y95.203 E3.76483
G1 X65.344 Y94.817 E3.78063
G1 X65.508 Y94.447 E3.79645
G1 X65.727 Y94.079 E3.8132
G1 X65.974 Y93.763 E3.82888
G1 X66.259 Y93.476 E3.8447
G1 X66.597 Y93.209 E3.86154
G1 X66.918 Y93.015 E3.8762
G1 X67.316 Y92.831 E3.89335
G1 X67.69 Y92.713 E3.90868
G1 X68.12 Y92.635 E3.92577
G1 X68.543 Y92.609 E3.94234
G1 X84.911 Y92.609 E4.58235
G1 X84.912 Y123.977 E5.80889
G1 X84.886 Y124.401 E5.8255
G1 X84.815 Y124.797 E5.84123
G1 X84.696 Y125.183 E5.85702
G1 X84.532 Y125.553 E5.87285
G1 X84.313 Y125.921 E5.88959
G1 X84.066 Y126.237 E5.90528
G1 X83.781 Y126.524 E5.92109
G1 X83.442 Y126.791 E5.93796
G1 X83.122 Y126.985 E5.9526
G1 X82.724 Y127.169 E5.96974
G1 X82.349 Y127.287 E5.98511
G1 X81.921 Y127.364 E6.00212
G1 X81.498 Y127.391 E6.01869
G1 X68.542 Y127.391 E6.52529
G1 X68.118 Y127.366 E6.5419
G1 X67.717 Y127.293 E6.55784
G1 X67.335 Y127.176 E6.57346
G1 X66.963 Y127.011 E6.58937
G1 X66.594 Y126.79 E6.60619
G1 X66.279 Y126.542 E6.62186
G1 X65.992 Y126.257 E6.63768
G1 X65.726 Y125.918 E6.65453
G1 X65.533 Y125.599 E6.66911
G1 X65.351 Y125.204 E6.68611
G1 X65.231 Y124.824 E6.70169
G1 X65.155 Y124.4 E6.71854
G1 X65.129 Y123.98 E6.73499
G1 X65.128 Y96.023 E7.82815
G0 F1125 X65.623 Y96.038
G1 F1800 X65.646 Y95.657 E7.84308
G1 X65.707 Y95.32 E7.85647
G1 X65.808 Y94.991 E7.86992
G1 X65.948 Y94.674 E7.88347
G1 X66.136 Y94.359 E7.89782
G1 X66.346 Y94.091 E7.91113
G1 X66.589 Y93.846 E7.92462
G1 X66.88 Y93.617 E7.9391
G1 X67.15 Y93.453 E7.95145
G1 X67.495 Y93.294 E7.96631
G1 X67.81 Y93.194 E7.97923
G1 X68.18 Y93.127 E7.99393
G1 X68.557 Y93.104 E8.0087
G1 X84.416 Y93.104 E8.62881
G1 X84.417 Y123.963 E9.83544
G1 X84.394 Y124.343 E9.85033
G1 X84.333 Y124.68 E9.86372
G1 X84.232 Y125.009 E9.87718
G1 X84.091 Y125.326 E9.89074
G1 X83.904 Y125.641 E9.90507
G1 X83.694 Y125.909 E9.91838
G1 X83.451 Y126.154 E9.93187
G1 X83.16 Y126.383 E9.94635
G1 X82.889 Y126.547 E9.95874
G1 X82.545 Y126.706 E9.97356
G1 X82.23 Y126.805 E9.98647
G1 X81.863 Y126.872 E10.00106
G1 X81.483 Y126.896 E10.01594
G1 X68.556 Y126.896 E10.52141
G1 X68.177 Y126.873 E10.53625
G1 X67.834 Y126.811 E10.54988
G1 X67.509 Y126.711 E10.56318
G1 X67.192 Y126.571 E10.57673
G1 X66.875 Y126.381 E10.59118
G1 X66.608 Y126.171 E10.60446
G1 X66.363 Y125.928 E10.61796
G1 X66.134 Y125.636 E10.63247
G1 X65.971 Y125.366 E10.6448
G1 X65.814 Y125.025 E10.65948
G1 X65.713 Y124.705 E10.6726
G1 X65.647 Y124.341 E10.68706
G1 X65.624 Y123.965 E10.70179
G1 X65.623 Y96.038 E11.79378
;;retract move;;
G1 F900 X65.646 Y95.657 E11.60378
G1 X65.707 Y95.32 E11.41378
G1 X65.808 Y94.991 E11.22378
G1 X65.948 Y94.674 E11.03378
G1 X66.136 Y94.359 E10.84378
G1 X66.272 Y94.185 E10.65378
G1 F1800 E10.59378
G0 F1125 X66.122 Y95.716 Z0.6
;TYPE:SKIN
G1 F600 Z0.2
G1 F1800 E11.79378
G1 X66.101 Y96.056 E11.80686
G1 X66.102 Y123.952 E12.8785
G1 X66.123 Y124.284 E12.89128
G1 X66.177 Y124.586 E12.90307
G1 X66.261 Y124.852 E12.91378
G1 X66.395 Y125.14 E12.92599
G1 X66.527 Y125.36 E12.93584
G1 X66.72 Y125.607 E12.94788
G1 X66.924 Y125.81 E12.95894
G1 X67.144 Y125.984 E12.96971
G1 X67.411 Y126.144 E12.98167
G1 X67.678 Y126.264 E12.99292
G1 X67.945 Y126.345 E13.00364
G1 X68.236 Y126.398 E13.015
G1 X68.571 Y126.418 E13.02789
G1 X81.467 Y126.418 E13.5233
G1 X81.802 Y126.396 E13.53619
G1 X82.119 Y126.339 E13.54857
G1 X82.369 Y126.26 E13.55864
G1 X82.667 Y126.122 E13.57125
G1 X82.89 Y125.987 E13.58127
G1 X83.133 Y125.794 E13.59319
G1 X83.337 Y125.589 E13.6043
G1 X83.51 Y125.367 E13.61511
G1 X83.666 Y125.104 E13.62686
G1 X83.784 Y124.837 E13.63807
G1 X83.868 Y124.563 E13.64908
G1 X83.918 Y124.283 E13.66001
G1 X83.939 Y123.945 E13.67302
G1 X83.938 Y93.582 E14.83943
G1 X68.574 Y93.582 E15.42964
G1 X68.239 Y93.603 E15.44254
G1 X67.921 Y93.661 E15.45495
G1 X67.67 Y93.74 E15.46506
G1 X67.373 Y93.878 E15.47764
G1 X67.151 Y94.013 E15.48762
G1 X66.907 Y94.206 E15.49957
G1 X66.703 Y94.41 E15.51066
G1 X66.53 Y94.633 E15.5215
G1 X66.373 Y94.897 E15.5333
G1 X66.256 Y95.161 E15.54439
G1 X66.172 Y95.437 E15.55548
G1 X66.122 Y95.716 E15.56636
;;retract move;;
G1 F900 X66.172 Y95.437 E15.47867
G1 X66.256 Y95.161 E15.39098
G1 X66.373 Y94.897 E15.30329
G1 X66.53 Y94.633 E15.21559
G1 X66.703 Y94.41 E15.1279
G1 X66.907 Y94.206 E15.04021
G1 X67.114 Y94.043 E14.95252
G1 X66.907 Y94.206 E14.86483
G1 X66.703 Y94.41 E14.77713
G1 X66.53 Y94.633 E14.68944
G1 X66.373 Y94.897 E14.60175
G1 X66.256 Y95.161 E14.51406
G1 X66.172 Y95.437 E14.42636
G1 F1800 E14.36636
G0 F1125 X66.92 Y95.383 Z0.6
G0 X83.707 Y94.161
G1 F600 Z0.2
G1 F1800 E15.56636
G1 X83.358 Y93.812 E15.58532
G1 X82.705 Y93.812
G1 X83.707 Y94.814 E15.63976
G1 X83.707 Y95.467
G1 X82.051 Y93.812 E15.7297
G1 X81.398 Y93.812
G1 X83.707 Y96.121 E15.85514
G1 X83.707 Y96.774
G1 X80.745 Y93.812 E16.01606
G1 X80.091 Y93.812
G1 X83.707 Y97.428 E16.21251
G1 X83.707 Y98.081
G1 X79.438 Y93.812 E16.44443
G1 X78.785 Y93.812
G1 X83.707 Y98.734 E16.71184
G1 X83.707 Y99.388
G1 X78.131 Y93.812 E17.01477
G1 X77.478 Y93.812
G1 X83.707 Y100.041 E17.35317
G1 X83.707 Y100.694
G1 X76.825 Y93.812 E17.72706
G1 X76.171 Y93.812
G1 X83.707 Y101.348 E18.13647
G1 X83.707 Y102.001
G1 X75.518 Y93.812 E18.58136
G1 X74.864 Y93.812
G1 X83.707 Y102.654 E19.06175
G1 X83.707 Y103.308
G1 X74.211 Y93.812 E19.57765
G1 X73.558 Y93.812
G1 X83.707 Y103.961 E20.12902
G1 X83.707 Y104.615
G1 X72.904 Y93.812 E20.71592
G1 X72.251 Y93.812
G1 X83.707 Y105.268 E21.3383
G1 X83.707 Y105.921
G1 X71.598 Y93.812 E21.99615
G1 X70.944 Y93.812
G1 X83.707 Y106.575 E22.68954
G1 X83.707 Y107.228
G1 X70.291 Y93.812 E23.4184
G1 X69.637 Y93.812
G1 X83.707 Y107.881 E24.18276
G1 X83.707 Y108.535
G1 X68.984 Y93.812 E24.98262
G1 X68.346 Y93.827
G1 X83.708 Y109.189 E25.81721
G1 X83.708 Y109.842
G1 X67.8 Y93.934 E26.68145
G1 X67.356 Y94.144
G1 X83.708 Y110.496 E27.56982
G1 X83.708 Y111.149
G1 X66.999 Y94.44 E28.47758
G1 X66.7 Y94.795
G1 X83.708 Y111.802 E29.40155
G1 X83.708 Y112.456
G1 X66.478 Y95.226 E30.33762
G1 X66.351 Y95.752
G1 X83.708 Y113.109 E31.28059
G1 X83.708 Y113.762
G1 X66.332 Y96.387 E32.22456
G1 X66.332 Y97.04
G1 X83.708 Y114.416 E33.16855
G1 X83.708 Y115.069
G1 X66.332 Y97.693 E34.11255
G1 X66.332 Y98.347
G1 X83.708 Y115.722 E35.05652
G1 X83.708 Y116.376
G1 X66.332 Y99 E36.00052
G1 X66.332 Y99.653
G1 X83.708 Y117.029 E36.94452
G1 X83.708 Y117.683
G1 X66.332 Y100.307 E37.88851
G1 X66.332 Y100.96
G1 X83.708 Y118.336 E38.83251
G1 X83.708 Y118.989
G1 X66.332 Y101.614 E39.77648
G1 X66.332 Y102.267
G1 X83.708 Y119.643 E40.72048
G1 X83.708 Y120.296
G1 X66.332 Y102.92 E41.66448
G1 X66.332 Y103.574
G1 X83.708 Y120.949 E42.60845
G1 X83.708 Y121.603
G1 X66.332 Y104.227 E43.55244
G1 X66.332 Y104.88
G1 X83.708 Y122.256 E44.49644
G1 X83.708 Y122.91
G1 X66.332 Y105.534 E45.44044
G1 X66.332 Y106.187
G1 X83.708 Y123.563 E46.38443
G1 X83.691 Y124.2
G1 X66.332 Y106.841 E47.32751
G1 X66.332 Y107.494
G1 X83.572 Y124.735 E48.26414
G1 X83.357 Y125.172
G1 X66.332 Y108.147 E49.18907
G1 X66.332 Y108.801
G1 X83.065 Y125.534 E50.09814
G1 X82.71 Y125.832
G1 X66.332 Y109.454 E50.98792
G1 X66.332 Y110.107
G1 X82.272 Y126.048 E51.85393
G1 X81.738 Y126.166
G1 X66.332 Y110.761 E52.69087
G1 X66.332 Y111.414
G1 X81.103 Y126.186 E53.49337
G1 X80.45 Y126.186
G1 X66.332 Y112.067 E54.2604
G1 X66.332 Y112.721
G1 X79.797 Y126.186 E54.99192
G1 X79.143 Y126.186
G1 X66.332 Y113.374 E55.68794
G1 X66.332 Y114.028
G1 X78.49 Y126.186 E56.34845
G1 X77.836 Y126.186
G1 X66.332 Y114.681 E56.97347
G1 X66.332 Y115.334
G1 X77.183 Y126.186 E57.563
G1 X76.53 Y126.186
G1 X66.332 Y115.988 E58.11704
G1 X66.332 Y116.641
G1 X75.876 Y126.186 E58.63557
G1 X75.223 Y126.186
G1 X66.332 Y117.294 E59.11862
G1 X66.332 Y117.948
G1 X74.57 Y126.186 E59.56617
G1 X73.916 Y126.186
G1 X66.332 Y118.601 E59.97822
G1 X66.332 Y119.254
G1 X73.263 Y126.186 E60.35479
G1 X72.609 Y126.186
G1 X66.332 Y119.908 E60.69583
G1 X66.332 Y120.561
G1 X71.956 Y126.186 E61.0014
G1 X71.303 Y126.186
G1 X66.332 Y121.215 E61.27146
G1 X66.332 Y121.868
G1 X70.649 Y126.186 E61.50602
G1 X69.996 Y126.186
G1 X66.332 Y122.521 E61.70511
G1 X66.332 Y123.175
G1 X69.343 Y126.186 E61.86869
G1 X68.689 Y126.186
G1 X66.332 Y123.828 E61.99676
G1 X66.405 Y124.555
G1 X67.955 Y126.105 E62.08097
G1 X68.032 Y126.182
;;retract move;;
G1 F900 X67.955 Y126.105 E61.70097
G1 X66.618 Y124.768 E61.32097
G1 X67.955 Y126.105 E60.94097
G1 F1800 E60.88097
G0 F1125 X68.466 Y125.557 Z0.6
;MESH:0_0
G0 X99.631 Y92.131
;TYPE:WALL-OUTER
G1 F600 Z0.2
G1 F1800 E62.08097
G1 X116.492 Y92.13 E62.66392
G1 X116.958 Y92.158 E62.68006
G1 X117.416 Y92.241 E62.69616
G1 X117.85 Y92.375 E62.71186
G1 X118.273 Y92.562 E62.72785
G1 X118.692 Y92.811 E62.7447
G1 X119.058 Y93.099 E62.7608
G1 X119.382 Y93.42 E62.77657
G1 X119.684 Y93.804 E62.79346
G1 X119.908 Y94.173 E62.80839
G1 X120.114 Y94.618 E62.82534
G1 X120.252 Y95.055 E62.84119
G1 X120.341 Y95.543 E62.85834
G1 X120.369 Y96.006 E62.87437
G1 X120.37 Y123.992 E63.84196
G1 X120.342 Y124.458 E63.8581
G1 X120.261 Y124.91 E63.87398
G1 X120.125 Y125.35 E63.8899
G1 X119.938 Y125.773 E63.90589
G1 X119.689 Y126.192 E63.92274
G1 X119.405 Y126.554 E63.93865
G1 X119.08 Y126.882 E63.95461
G1 X118.696 Y127.184 E63.9715
G1 X118.327 Y127.408 E63.98643
G1 X117.876 Y127.616 E64.0036
G1 X117.445 Y127.752 E64.01922
G1 X116.957 Y127.84 E64.03637
G1 X116.492 Y127.869 E64.05248
G1 X103.508 Y127.869 E64.50138
G1 X103.042 Y127.842 E64.51752
G1 X102.584 Y127.759 E64.53361
G1 X102.148 Y127.625 E64.54938
G1 X101.723 Y127.436 E64.56547
G1 X101.303 Y127.185 E64.58238
G1 X100.942 Y126.901 E64.59826
G1 X100.614 Y126.576 E64.61423
G1 X100.312 Y126.19 E64.63117
G1 X100.09 Y125.823 E64.646
G1 X99.884 Y125.376 E64.66302
G1 X99.746 Y124.939 E64.67886
G1 X99.659 Y124.457 E64.6958
G1 X99.631 Y123.994 E64.71183
G1 X99.631 Y92.131 E65.81346
G0 F1125 X100.109 Y92.609
;TYPE:WALL-INNER
G1 F1800 X116.477 Y92.608 E66.45347
G1 X116.901 Y92.634 E66.47008
G1 X117.302 Y92.707 E66.48602
G1 X117.683 Y92.824 E66.50161
G1 X118.053 Y92.988 E66.51743
G1 X118.421 Y93.206 E66.53416
G1 X118.741 Y93.458 E66.55008
G1 X119.024 Y93.739 E66.56568
G1 X119.291 Y94.077 E66.58252
G1 X119.485 Y94.398 E66.59718
G1 X119.667 Y94.791 E66.61412
G1 X119.787 Y95.171 E66.6297
G1 X119.865 Y95.6 E66.64675
G1 X119.891 Y96.021 E66.66324
G1 X119.892 Y123.977 E67.75636
G1 X119.866 Y124.401 E67.77297
G1 X119.795 Y124.797 E67.7887
G1 X119.676 Y125.183 E67.8045
G1 X119.512 Y125.553 E67.82032
G1 X119.293 Y125.921 E67.83707
G1 X119.046 Y126.237 E67.85275
