;FLAVOR:Marlin
;TIME:2868.79
;Filament used:3.83047m
;Material Diameter:1.75
;Material Density:1.24
;Filament Cost:0.228492
;Filament Weight:11.424577
;Filament Length:3.830473
;Layer height:0.2
;MINX:0.557
;MINY:0.501
;MINZ:0.2
;MAXX:184.778
;MAXY:164.071
;MAXZ:20.401
;OuterWall Time:454.726
;InnerWall Time:852.488
;Skin Time:646.681
;Support Time:0
;SkirtBrim Time:0
;Infill Time:155.29
;Support Infills Time:0
;Combing Time:242.467
;Retraction Time:517.137
;PrimeTower Time:0
;;;;;;;;;;;;;;;;;;;;;;;;;;;;;;;;;;;;;;;;;;;;;;;;;;;;;;;;;;;;;;;;;;;;;;;;;;;;
;Creality Print GCode Generated by CXEngine
;CRSLICE_GIT_HASH:58ee74d
;Creality Print Version : V4.3.8.6984
;CXEngine Release Time:2023-12-08 15:31:58
;Gcode Generated Time:2024-06-04 22:59:05
;----------Machine Config--------------
;Machine Name:Ender-3 V3 SE
;Machine Height:250
;Machine Width:220
;Machine Depth:220
;Material Type:PLA
;Material Name:Generic-PLA_1.75
;Number of Extruders:1
;ExtruderParams[0] Nozzle Diameter:1000
;----------Profile Config---------------
;Wall Thickness:0.8
;Top/Bottom Thickness:0.8
;Out Wall Line Width:0.42
;Inner Wall Line Width:0.45
;Inital Height:200
;Wall Line Count:3
;Infill Line Distance:8
;Infill Pattern:grid
;Infill Sparse Density:10
;Infill Wipe Distance:0.11
;Print Temperature:220
;Bed Temperature:60
;Support Enable:false
;Support Density:15
;Support Angle:60
;Adhesion Type:autobrim
;machine is belt:false
;machine belt offset:10
;machine belt offset Y:0
;Raft Base Line Spacing:1.6
;Wait Heatup Sync:true
;Enable Ironing:true
;Material Type:PLA
;Max volumetric speed:18
;Preview Img Type:png
;Screen Size:Sermoon D3
;----------Shell Config----------------
;Outer Wall Wipe Distance:2000
;Outer Inset First:false
;Infill Before Walls:false
;Infill Overlap:0.09
;Fill Gaps Between Walls:everywhere
;Minimum Infill Area:30
;Top Surface Skin Layer:2
;Top Layers:3
;Z Seam Alignment:sharpest_corner
;Seam Corner Preference:z_seam_corner_inner
;Z Seam X:110
;Z Seam Y:220
;Horizontal Expansion:0
;Top/Bottom Pattern:zigzag
;Ironing Pattern:zigzag
;Vase Model:false
;----------Support Config----------------
;Support Type:everywhere
;Support Pattern:zigzag
;Support Infill Layer Thickness:0.2
;Minimum Support Area:1
;Enable Support Roof:true
;Support Roof Thickness:0.8
;Support Roof Pattern:lines
;Connect Support Lines:0
;Connect Support ZigZags:1
;Minimum Support X/Y Distance:0.2
;Support Line Distance:2.67
; ---------PrintSpeed & Travel----------
;Enable Print Cool:true
;Avoid Printed Parts Traveling:true
;Enable Retraction:true
;Retraction Distance:1.2
;Retraction Speed:30
;Retraction Prime Speed:30
;Maximum Retraction Count:100
;Minimum Extrusion Distance Window:0.8
;Z Hop When Retracted:true
;Z Hop Height:0.4
;Retract Before Outer Wall:true

;Outer Wall Speed:100
;Inner Wall Speed:100
;Infill Speed:200
;Top/Bottom Speed:100
;Travel Speed:150
;Initial Layer Speed:30
;Skirt/Brim Speed:25
;Prime Tower Speed:200
;Outer Wall Acceleration:1000
;Inner Wall Acceleration:2000
;Infill Acceleration:2500
;Top/Bottom Acceleration:2500
;Travel Acceleration:2500
;Initial Layer Print Acceleration:500
;Initial Layer Travel Acceleration:500
;Skirt/Brim Acceleration:500
;Combing Mode:off
; --------SpecialModel&Mesh Fixes--------
;Union Overlapping Volum:true
;Remove All Holes:false
;Maximum Travel Resolution:0.19
;Maximum Deviation:0.05
;Maximum Model Angle:0.872665
;IS Mold Print:false
;Make Overhang Printable:false
;Enable Coasting:false
;Coasting Volumes:0.064
;Coasting Speed:0.9
;Raft AirGap:0.25
;Layer0 ZOverLap:0.13
;Adaptive Layers:0
;---------------------End of Head--------------------------
M140 S60
M105
M190 S60
M104 S220
M82 ;absolute extrusion mode
M220 S100 ;Reset Feedrate
M221 S100 ;Reset Flowrate

G28 ;Home

G92 E0 ;Reset Extruder
G1 Z2.0 F3000 ;Move Z Axis up
G1 X-2.1 Y20 Z0.28 F5000.0 ;Move to start position
M109 S220.000000
G1 X-2.1 Y145.0 Z0.28 F1500.0 E15 ;Draw the first line
G1 X-2.4 Y145.0 Z0.28 F5000.0 ;Move to side a little
G1 X-2.4 Y20 Z0.28 F1500.0 E30 ;Draw the second line
G92 E0  ;Reset Extruder
G1 E-1.0000 F1800 ;Retract a bit
G1 Z2.0 F3000 ;Move Z Axis up
G1 E0.0000 F1800 

G92 E0
G92 E0
G1 F1800 E-1.2
;LAYER_COUNT:30

;LAYER:0
M106 S0
M204 S500
;;retract;;
G1 F1800 E0
G1 F1800 E-1.2
G0 F1125 X0.557 Y0.501 Z20.401
;MESH:0_0
G0 X69.532 Y62.63 Z0.6
;TYPE:WALL-OUTER
G1 F600 Z0.2
G1 F1800 E0
G1 X69.821 Y62.261 E0.0162
G1 X70.182 Y61.99 E0.03181
G1 X70.576 Y61.829 E0.04653
G1 X71.034 Y61.765 E0.06252
G1 X71.482 Y61.825 E0.07814
G1 X71.904 Y62.001 E0.09395
G1 X72.251 Y62.266 E0.10905
G1 X72.535 Y62.635 E0.12515
G1 X72.707 Y63.062 E0.14106
G1 X72.763 Y63.477 E0.15554
G1 X72.706 Y63.947 E0.17191
G1 X72.536 Y64.358 E0.18729
G1 X72.261 Y64.722 E0.20306
G1 X71.9 Y65 E0.21881
G1 X71.481 Y65.171 E0.23446
G1 X71.031 Y65.23 E0.25015
G1 X70.562 Y65.162 E0.26653
G1 X70.168 Y64.999 E0.28128
G1 X69.807 Y64.724 E0.29697
G1 X69.531 Y64.365 E0.31262
G1 X69.36 Y63.947 E0.32824
G1 X69.3 Y63.498 E0.3439
G1 X69.36 Y63.046 E0.35966
G1 X69.532 Y62.63 E0.37523
G0 F1125 X69.113 Y62.392
;TYPE:WALL-INNER
G1 F1800 X69.461 Y61.935 E0.39769
G1 X69.932 Y61.574 E0.42089
G1 X70.476 Y61.357 E0.44379
G1 X71.033 Y61.286 E0.46575
G1 X71.593 Y61.356 E0.48782
G1 X72.142 Y61.578 E0.51097
G1 X72.604 Y61.937 E0.53385
G1 X72.941 Y62.376 E0.55549
G1 X73.169 Y62.914 E0.57834
G1 X73.247 Y63.493 E0.60118
G1 X73.167 Y64.086 E0.62458
G1 X72.945 Y64.612 E0.6469
G1 X72.6 Y65.064 E0.66914
G1 X72.142 Y65.418 E0.69177
G1 X71.609 Y65.635 E0.71427
G1 X71.033 Y65.713 E0.737
G1 X70.459 Y65.635 E0.75965
G1 X69.925 Y65.419 E0.78217
G1 X69.465 Y65.062 E0.80494
G1 X69.111 Y64.602 E0.82764
G1 X68.896 Y64.078 E0.84979
G1 X68.818 Y63.504 E0.87244
G1 X68.893 Y62.928 E0.89515
G1 X69.113 Y62.392 E0.9178
G0 F1125 X68.64 Y62.242
G1 F1800 X68.768 Y62.027 E0.92759
G1 X69.015 Y61.704 E0.94349
G1 X69.189 Y61.521 E0.95336
G1 X69.58 Y61.22 E0.97265
G1 X69.826 Y61.083 E0.98366
G1 X70.361 Y60.872 E1.00615
G1 X71.034 Y60.789 E1.03267
G1 X71.712 Y60.872 E1.05938
G1 X72.392 Y61.145 E1.08803
G1 X72.96 Y61.589 E1.11622
G1 X73.386 Y62.142 E1.14351
G1 X73.641 Y62.765 E1.16983
G1 X73.746 Y63.484 E1.19825
G1 X73.647 Y64.217 E1.22717
G1 X73.389 Y64.846 E1.25375
G1 X73.039 Y65.305 E1.27632
G1 X72.829 Y65.513 E1.28788
G1 X72.517 Y65.753 E1.30327
G1 X72.237 Y65.914 E1.3159
G1 X71.879 Y66.06 E1.33102
G1 X71.586 Y66.138 E1.34287
G1 X71.195 Y66.191 E1.3583
G1 X70.87 Y66.191 E1.37101
G1 F1767.9 X70.478 Y66.147 E1.38671
G1 F1434.8 X70.189 Y66.186 E1.40102
G1 F1232.4 X69.63 Y65.935 E1.43602
G1 F1235.8 X69.167 Y65.604 E1.46843
G1 F1460.7 X69.016 Y65.292 E1.48513
G1 F1800 X68.777 Y64.981 E1.50047
G1 X68.618 Y64.705 E1.51292
G1 X68.471 Y64.346 E1.52809
G1 X68.392 Y64.048 E1.54015
G1 X68.34 Y63.657 E1.55557
G1 X68.34 Y63.339 E1.568
G1 X68.392 Y62.947 E1.58347
G1 X68.458 Y62.683 E1.59411
G1 X68.64 Y62.242 E1.61276
;;retract move;;
G1 F900 X68.768 Y62.027 E1.42276
G1 X69.015 Y61.704 E1.23276
G1 X69.189 Y61.521 E1.04276
G1 X69.58 Y61.22 E0.85276
G1 X69.826 Y61.083 E0.66276
G1 X70.121 Y60.967 E0.47276
G1 F1800 E0.41276
G0 F1125 X69.64 Y61.542 Z0.6
G0 X40.341 Y96.583
;TYPE:WALL-OUTER
G1 F600 Z0.2
G1 F1800 E1.61276
G1 X40.291 Y96.096 E1.62969
G1 X59.567 Y62.702 E2.96279
G1 X59.708 Y62.594 E2.96893
G1 X60.261 Y62.563 E2.98808
G1 X76.62 Y71.985 E3.64078
G1 X94.206 Y76.692 E4.2702
G1 X132.105 Y76.694 E5.58051
G1 X132.417 Y76.876 E5.593
G1 X132.593 Y77.192 E5.60551
G1 X132.595 Y86.065 E5.91228
G1 X132.753 Y86.218 E5.91989
G1 X179.635 Y86.219 E7.54078
G1 X179.941 Y86.315 E7.55187
G1 X180.219 Y86.705 E7.56843
G1 X180.216 Y144.189 E9.55587
G1 X180.122 Y144.498 E9.56704
G1 X179.74 Y144.774 E9.58333
G1 X142.272 Y144.781 E10.87875
G1 X142.119 Y144.94 E10.88638
G1 X142.119 Y153.686 E11.18876
G1 X142.037 Y154.011 E11.20035
G1 X141.635 Y154.301 E11.21749
G1 X123.219 Y154.306 E11.8542
G1 X123.07 Y154.461 E11.86163
G1 X123.068 Y158.318 E11.99499
G1 X123.018 Y158.724 E12.00913
G1 X122.565 Y159.064 E12.02871
G1 X103.229 Y159.067 E12.69723
G1 X102.895 Y158.985 E12.70912
G1 X102.608 Y158.581 E12.72626
G1 X102.606 Y154.462 E12.86867
G1 X102.446 Y154.311 E12.87627
G1 X84.175 Y154.304 E13.50797
G1 X83.848 Y154.222 E13.51963
G1 X83.56 Y153.824 E13.53661
G1 X83.553 Y152.028 E13.59871
G1 X83.34 Y151.924 E13.6069
G1 X64.993 Y151.923 E14.24123
G1 X64.596 Y151.64 E14.25809
G1 X64.513 Y151.347 E14.26862
G1 X64.506 Y110.777 E15.67128
G1 X64.382 Y110.563 E15.67983
G1 X40.556 Y96.801 E16.63113
G1 X40.341 Y96.583 E16.64172
G0 F1125 X39.869 Y96.644
;TYPE:WALL-INNER
G1 F1800 X39.811 Y96.138 E16.66163
G1 X39.866 Y95.871 E16.67229
G1 X59.153 Y62.463 E18.18066
G1 X59.36 Y62.237 E18.19264
G1 X59.624 Y62.114 E18.20403
G1 X60.208 Y62.088 E18.22689
G1 X60.527 Y62.165 E18.23972
G1 X76.805 Y71.539 E18.97421
G1 X94.269 Y76.214 E19.68112
G1 X132.041 Y76.216 E21.15806
G1 X132.356 Y76.289 E21.1707
G1 X132.766 Y76.531 E21.18932
G1 X132.998 Y76.937 E21.2076
G1 X133.071 Y77.246 E21.22001
G1 X133.072 Y85.739 E21.5521
G1 X179.679 Y85.741 E23.3745
G1 X180.096 Y85.852 E23.39138
G1 X180.322 Y86.031 E23.40265
G1 X180.609 Y86.435 E23.42203
G1 X180.697 Y86.778 E23.43587
G1 X180.697 Y144.233 E25.68245
G1 X180.603 Y144.596 E25.69711
G1 X180.398 Y144.885 E25.71096
G1 X179.882 Y145.257 E25.73584
G1 X142.597 Y145.258 E27.19373
G1 X142.596 Y153.71 E27.52422
G1 X142.492 Y154.179 E27.543
G1 X142.3 Y154.408 E27.55469
G1 X141.907 Y154.699 E27.57381
G1 X141.653 Y154.782 E27.58426
G1 X123.547 Y154.784 E28.29223
G1 X123.547 Y158.29 E28.42932
G1 X123.483 Y158.855 E28.45155
G1 X123.267 Y159.133 E28.46532
G1 X122.908 Y159.404 E28.48291
G1 X122.568 Y159.545 E28.4973
G1 X103.229 Y159.545 E29.25348
G1 X102.838 Y159.462 E29.26911
G1 X102.542 Y159.308 E29.28216
G1 X102.186 Y158.809 E29.30613
G1 X102.132 Y158.57 E29.31571
G1 X102.129 Y154.788 E29.46359
G1 X84.082 Y154.782 E30.16925
G1 X83.699 Y154.673 E30.18482
G1 X83.478 Y154.528 E30.19516
G1 X83.176 Y154.104 E30.21551
G1 X83.082 Y153.752 E30.22976
G1 X83.076 Y152.401 E30.28259
G1 X64.942 Y152.399 E30.99165
G1 X64.686 Y152.291 E31.00252
G1 X64.342 Y152.045 E31.01905
G1 X64.128 Y151.751 E31.03327
G1 X64.032 Y151.393 E31.04776
G1 X64.029 Y110.91 E32.63071
G1 X40.277 Y97.196 E33.70314
G1 X40.012 Y96.935 E33.71768
G1 X39.869 Y96.644 E33.73036
G0 F1125 X39.484 Y97.018
G1 F1800 X39.376 Y96.689 E33.7439
G1 X39.311 Y96.13 E33.7659
G1 X39.406 Y95.678 E33.78396
G1 X58.724 Y62.215 E35.2948
G1 X59.075 Y61.832 E35.31511
G1 X59.348 Y61.689 E35.32716
G1 X59.611 Y61.618 E35.33781
G1 X60.21 Y61.593 E35.36125
G1 X60.621 Y61.648 E35.37747
G1 X68.323 Y66.082 E35.72497
G1 F1460.7 X68.765 Y66.205 E35.74708
G1 F1253.2 X69.099 Y66.413 E35.76917
G1 F1276.5 X69.483 Y66.634 E35.7936
G1 F1249.6 X69.883 Y66.845 E35.81907
G1 F1434.8 X70.146 Y67.122 E35.83781
G1 F1767.9 X70.483 Y67.327 E35.85351
G1 F1800 X76.995 Y71.078 E36.14736
G1 X94.334 Y75.719 E36.84921
G1 X132.041 Y75.721 E38.32361
G1 X132.575 Y75.845 E38.34504
G1 X132.993 Y76.081 E38.36381
G1 X133.242 Y76.356 E38.37832
G1 X133.441 Y76.718 E38.39447
G1 X133.566 Y77.242 E38.41554
G1 X133.567 Y85.244 E38.72843
G1 X168.939 Y85.244 E40.11152
G1 F1475.2 X169.375 Y85.136 E40.13295
G1 F1280.2 X169.986 Y85.153 E40.16656
G1 F1274.7 X170.667 Y85.134 E40.20418
G1 F1448.8 X171.034 Y85.238 E40.22271
G1 F1771.4 X171.421 Y85.245 E40.23809
G1 F1800 X179.733 Y85.246 E40.5631
G1 X180.128 Y85.348 E40.57905
G1 X180.386 Y85.457 E40.59
G1 X180.69 Y85.699 E40.60519
G1 X181.029 Y86.161 E40.6276
G1 X181.153 Y86.472 E40.64069
G1 X181.192 Y86.778 E40.65275
G1 X181.192 Y144.286 E42.9014
G1 X181.07 Y144.768 E42.92084
G1 X180.951 Y144.993 E42.93079
G1 X180.773 Y145.22 E42.94207
G1 X180.277 Y145.59 E42.96627
G1 X179.844 Y145.751 E42.98433
G1 X143.092 Y145.753 E44.42139
G1 X143.091 Y153.839 E44.73756
G1 X142.986 Y154.225 E44.7532
G1 X142.869 Y154.489 E44.7645
G1 X142.683 Y154.738 E44.77665
G1 X142.151 Y155.135 E44.8026
G1 X141.717 Y155.277 E44.82046
G1 X124.042 Y155.279 E45.51158
G1 X124.037 Y158.404 E45.63377
G1 X123.981 Y158.838 E45.65088
G1 X123.843 Y159.235 E45.66731
G1 X123.592 Y159.506 E45.68176
G1 X123.205 Y159.801 E45.70079
G1 X122.873 Y159.976 E45.71546
G1 X122.625 Y160.04 E45.72548
G1 X103.229 Y160.04 E46.48389
G1 X102.777 Y159.978 E46.50173
G1 X102.184 Y159.67 E46.52785
G1 X101.731 Y159.018 E46.5589
G1 X101.639 Y158.614 E46.5751
G1 X101.634 Y155.283 E46.70535
G1 X84.149 Y155.277 E47.38904
G1 X83.863 Y155.235 E47.40034
G1 X83.498 Y155.128 E47.41521
G1 X83.121 Y154.881 E47.43283
G1 X82.747 Y154.351 E47.4582
G1 X82.643 Y154.114 E47.46832
G1 X82.587 Y153.754 E47.48256
G1 X82.583 Y152.896 E47.51611
G1 X64.857 Y152.893 E48.20923
G1 X64.42 Y152.708 E48.22778
G1 X64.026 Y152.426 E48.24673
G1 X63.814 Y152.211 E48.25853
G1 X63.659 Y151.918 E48.27149
G1 X63.537 Y151.45 E48.2904
G1 X63.534 Y111.196 E49.86439
G1 X39.981 Y97.598 E50.92782
G1 X39.627 Y97.251 E50.9472
G1 X39.484 Y97.018 E50.95789
;;retract move;;
G1 F900 X39.376 Y96.689 E50.67289
G1 X39.311 Y96.13 E50.38789
G1 X39.406 Y95.678 E50.10289
G1 X39.721 Y95.132 E49.81789
G1 F1800 E49.75789
G0 F1125 X40.072 Y95.794 Z0.6
G0 X45.017 Y105.129
;TYPE:WALL-OUTER
G1 F600 Z0.2
G1 F1800 E50.95789
G1 X45.301 Y104.756 E50.9741
G1 X45.658 Y104.479 E50.98972
G1 X46.073 Y104.309 E51.00523
G1 X46.53 Y104.248 E51.02117
G1 X46.997 Y104.316 E51.03748
G1 X47.39 Y104.48 E51.05221
G1 X47.751 Y104.754 E51.06788
G1 X48.027 Y105.114 E51.08356
G1 X48.199 Y105.533 E51.09922
G1 X48.258 Y105.986 E51.11501
G1 X48.193 Y106.442 E51.13094
G1 X48.028 Y106.847 E51.14606
G1 X47.758 Y107.198 E51.16137
G1 X47.381 Y107.486 E51.17777
G1 X46.972 Y107.653 E51.19304
G1 X46.523 Y107.714 E51.20871
G1 X46.081 Y107.654 E51.22413
G1 X45.672 Y107.488 E51.23939
G1 X45.315 Y107.219 E51.25485
G1 X45.027 Y106.851 E51.271
G1 X44.853 Y106.425 E51.28691
G1 X44.795 Y105.96 E51.30312
G1 X44.859 Y105.517 E51.31859
G1 X45.017 Y105.129 E51.33308
G0 F1125 X44.609 Y104.867
;TYPE:WALL-INNER
G1 F1800 X44.958 Y104.414 E51.35544
G1 X45.419 Y104.059 E51.37819
G1 X45.95 Y103.843 E51.4006
G1 X46.529 Y103.766 E51.42344
G1 X47.101 Y103.842 E51.446
G1 X47.653 Y104.076 E51.46945
G1 X48.092 Y104.414 E51.49111
G1 X48.445 Y104.874 E51.51378
G1 X48.662 Y105.401 E51.53607
G1 X48.741 Y105.988 E51.55923
G1 X48.656 Y106.573 E51.58234
G1 X48.447 Y107.085 E51.60397
G1 X48.087 Y107.551 E51.62699
G1 X47.64 Y107.894 E51.64902
G1 X47.119 Y108.112 E51.6711
G1 X46.525 Y108.195 E51.69456
G1 X45.939 Y108.114 E51.71769
G1 X45.439 Y107.911 E51.73879
G1 X44.965 Y107.552 E51.76204
G1 X44.597 Y107.071 E51.78572
G1 X44.393 Y106.554 E51.80745
G1 X44.311 Y105.979 E51.83016
G1 X44.386 Y105.421 E51.85218
G1 X44.609 Y104.867 E51.87553
G0 F1125 X44.171 Y104.636
G1 F1800 X44.599 Y104.067 E51.90337
G1 X45.042 Y103.726 E51.92523
G1 X45.318 Y103.566 E51.9377
G1 X45.676 Y103.42 E51.95282
G1 X45.974 Y103.34 E51.96489
G1 X46.365 Y103.288 E51.98031
G1 X46.684 Y103.288 E51.99278
G1 X47.075 Y103.339 E52.0082
G1 X47.33 Y103.402 E52.01847
G1 X47.882 Y103.628 E52.04179
G1 X48.318 Y103.963 E52.06329
G1 X48.542 Y104.187 E52.07568
G1 X48.781 Y104.499 E52.09105
G1 X48.939 Y104.774 E52.10345
G1 X49.087 Y105.132 E52.1186
G1 X49.166 Y105.43 E52.13065
G1 X49.218 Y105.822 E52.14611
G1 X49.218 Y106.14 E52.15855
G1 X49.145 Y106.684 E52.18001
G1 X48.938 Y107.19 E52.20139
G1 X48.781 Y107.462 E52.21367
G1 X48.432 Y107.91 E52.23587
G1 X47.897 Y108.322 E52.26228
G1 X47.231 Y108.602 E52.29052
G1 X46.522 Y108.693 E52.31847
G1 X45.824 Y108.602 E52.346
G1 X45.175 Y108.338 E52.37339
G1 X44.616 Y107.908 E52.40097
G1 X44.173 Y107.338 E52.4292
G1 X43.905 Y106.685 E52.4568
G1 X43.812 Y105.977 E52.48472
G1 X43.903 Y105.289 E52.51186
G1 X44.171 Y104.636 E52.53946
;;retract move;;
G1 F900 X44.599 Y104.067 E52.31146
G1 X45.042 Y103.726 E52.08346
G1 X45.318 Y103.566 E51.85546
G1 X45.676 Y103.42 E51.62746
G1 X45.699 Y103.414 E51.39946
G1 F1800 E51.33946
G0 F1125 X46.046 Y104.078 Z0.6
G0 X73.238 Y156.048
;TYPE:WALL-OUTER
G1 F600 Z0.2
G1 F1800 E52.53946
G1 X73.514 Y155.689 E52.55511
G1 X73.873 Y155.413 E52.57077
G1 X74.291 Y155.242 E52.58638
G1 X74.74 Y155.182 E52.60204
G1 X75.189 Y155.242 E52.61771
G1 X75.607 Y155.413 E52.63332
