;FLAVOR:Marlin
;TIME:2869.53
;Filament used:3.83137m
;Material Diameter:1.75
;Material Density:1.24
;Filament Cost:0.228545
;Filament Weight:11.427261
;Filament Length:3.831373
;Layer height:0.2
;MINX:0.38
;MINY:0.646
;MINZ:0.2
;MAXX:184.777
;MAXY:164.071
;MAXZ:20.401
;OuterWall Time:454.42
;InnerWall Time:854.023
;Skin Time:647.794
;Support Time:0
;SkirtBrim Time:0
;Infill Time:156.019
;Support Infills Time:0
;Combing Time:238.814
;Retraction Time:518.46
;PrimeTower Time:0


;;;;;;;;;;;;;;;;;;;;;;;;;;;;;;;;;;;;;;;;;;;;;;;;;;;;;;;;;;;;;;;;;;;;;;;;;;;;
;Creality Print GCode Generated by CXEngine
;CRSLICE_GIT_HASH:58ee74d
;Creality Print Version : V4.3.8.6984
;CXEngine Release Time:2023-12-08 15:31:58
;Gcode Generated Time:2024-06-04 22:56:31
;----------Machine Config--------------
;Machine Name:Ender-3 V3 SE
;Machine Height:250
;Machine Width:220
;Machine Depth:220
;Material Type:PLA
;Material Name:Generic-PLA_1.75
;Number of Extruders:1
;ExtruderParams[0] Nozzle Diameter:1000
;----------Profile Config---------------
;Wall Thickness:0.8
;Top/Bottom Thickness:0.8
;Out Wall Line Width:0.42
;Inner Wall Line Width:0.45
;Inital Height:200
;Wall Line Count:3
;Infill Line Distance:8
;Infill Pattern:grid
;Infill Sparse Density:10
;Infill Wipe Distance:0.11
;Print Temperature:220
;Bed Temperature:60
;Support Enable:false
;Support Density:15
;Support Angle:60
;Adhesion Type:autobrim
;machine is belt:false
;machine belt offset:10
;machine belt offset Y:0
;Raft Base Line Spacing:1.6
;Wait Heatup Sync:true
;Enable Ironing:true
;Material Type:PLA
;Max volumetric speed:18
;Preview Img Type:png
;Screen Size:Sermoon D3
;----------Shell Config----------------
;Outer Wall Wipe Distance:2000
;Outer Inset First:false
;Infill Before Walls:false
;Infill Overlap:0.09
;Fill Gaps Between Walls:everywhere
;Minimum Infill Area:30
;Top Surface Skin Layer:2
;Top Layers:3
;Z Seam Alignment:sharpest_corner
;Seam Corner Preference:z_seam_corner_inner
;Z Seam X:110
;Z Seam Y:220
;Horizontal Expansion:0
;Top/Bottom Pattern:zigzag
;Ironing Pattern:zigzag
;Vase Model:false
;----------Support Config----------------
;Support Type:everywhere
;Support Pattern:zigzag
;Support Infill Layer Thickness:0.2
;Minimum Support Area:1
;Enable Support Roof:true
;Support Roof Thickness:0.8
;Support Roof Pattern:lines
;Connect Support Lines:0
;Connect Support ZigZags:1
;Minimum Support X/Y Distance:0.2
;Support Line Distance:2.67
; ---------PrintSpeed & Travel----------
;Enable Print Cool:true
;Avoid Printed Parts Traveling:true
;Enable Retraction:true
;Retraction Distance:1.2
;Retraction Speed:30
;Retraction Prime Speed:30
;Maximum Retraction Count:100
;Minimum Extrusion Distance Window:0.8
;Z Hop When Retracted:true
;Z Hop Height:0.4
;Retract Before Outer Wall:true

;Outer Wall Speed:100
;Inner Wall Speed:100
;Infill Speed:200
;Top/Bottom Speed:100
;Travel Speed:150
;Initial Layer Speed:30
;Skirt/Brim Speed:25
;Prime Tower Speed:200
;Outer Wall Acceleration:1000
;Inner Wall Acceleration:2000
;Infill Acceleration:2500
;Top/Bottom Acceleration:2500
;Travel Acceleration:2500
;Initial Layer Print Acceleration:500
;Initial Layer Travel Acceleration:500
;Skirt/Brim Acceleration:500
;Combing Mode:off
; --------SpecialModel&Mesh Fixes--------
;Union Overlapping Volum:true
;Remove All Holes:false
;Maximum Travel Resolution:0.19
;Maximum Deviation:0.05
;Maximum Model Angle:0.872665
;IS Mold Print:false
;Make Overhang Printable:false
;Enable Coasting:false
;Coasting Volumes:0.064
;Coasting Speed:0.9
;Raft AirGap:0.25
;Layer0 ZOverLap:0.13
;Adaptive Layers:0
;---------------------End of Head--------------------------
M140 S60
M105
M190 S60
M104 S220
M82 ;absolute extrusion mode
M220 S100 ;Reset Feedrate
M221 S100 ;Reset Flowrate

G28 ;Home

G92 E0 ;Reset Extruder
G1 Z2.0 F3000 ;Move Z Axis up
G1 X-2.1 Y20 Z0.28 F5000.0 ;Move to start position
M109 S220.000000
G1 X-2.1 Y145.0 Z0.28 F1500.0 E15 ;Draw the first line
G1 X-2.4 Y145.0 Z0.28 F5000.0 ;Move to side a little
G1 X-2.4 Y20 Z0.28 F1500.0 E30 ;Draw the second line
G92 E0  ;Reset Extruder
G1 E-1.0000 F1800 ;Retract a bit
G1 Z2.0 F3000 ;Move Z Axis up
G1 E0.0000 F1800 

G92 E0
G92 E0
G1 F1800 E-1.2
;LAYER_COUNT:30

;LAYER:0
M106 S0
M204 S500
;;retract;;
G1 F1800 E0
G1 F1800 E-1.2
G0 F1125 X0.38 Y0.646 Z20.401
;MESH:0_0
G0 X48.511 Y82.543 Z0.6
;TYPE:WALL-OUTER
G1 F600 Z0.2
G1 F1800 E0
G1 X48.34 Y82.125 E0.01561
G1 X48.28 Y81.676 E0.03128
G1 X48.342 Y81.225 E0.04702
G1 X48.509 Y80.817 E0.06226
G1 X48.792 Y80.447 E0.07836
G1 X49.133 Y80.185 E0.09323
G1 X49.561 Y80.003 E0.10931
G1 X49.999 Y79.946 E0.12458
G1 X50.451 Y80.002 E0.14033
G1 X50.881 Y80.177 E0.15638
G1 X51.252 Y80.466 E0.17264
G1 X51.52 Y80.822 E0.18804
G1 X51.685 Y81.223 E0.20304
G1 X51.743 Y81.684 E0.2191
G1 X51.689 Y82.105 E0.23378
G1 X51.515 Y82.542 E0.25004
G1 X51.239 Y82.901 E0.26569
G1 X50.88 Y83.178 E0.28137
G1 X50.458 Y83.35 E0.29713
G1 X50.013 Y83.409 E0.31265
G1 X49.564 Y83.349 E0.32831
G1 X49.144 Y83.177 E0.344
G1 X48.787 Y82.901 E0.3596
G1 X48.511 Y82.543 E0.37523
G0 F1125 X48.092 Y82.782
;TYPE:WALL-INNER
G1 F1800 X47.875 Y82.251 E0.39766
G1 X47.799 Y81.671 E0.42053
G1 X47.878 Y81.098 E0.44315
G1 X48.101 Y80.557 E0.46603
G1 X48.438 Y80.12 E0.48761
G1 X48.913 Y79.751 E0.51113
G1 X49.454 Y79.535 E0.53391
G1 X50.009 Y79.464 E0.55578
G1 X50.594 Y79.539 E0.57885
G1 X51.122 Y79.756 E0.60117
G1 X51.584 Y80.115 E0.62404
G1 X51.941 Y80.589 E0.64725
G1 X52.144 Y81.084 E0.66817
G1 X52.226 Y81.659 E0.69088
G1 X52.151 Y82.255 E0.71437
G1 X51.934 Y82.783 E0.73669
G1 X51.58 Y83.243 E0.75938
G1 X51.12 Y83.596 E0.78206
G1 X50.594 Y83.813 E0.8043
G1 X50.014 Y83.89 E0.82718
G1 X49.437 Y83.815 E0.84993
G1 X48.906 Y83.596 E0.87239
G1 X48.446 Y83.242 E0.89509
G1 X48.092 Y82.782 E0.91779
G0 F1125 X47.757 Y83.159
G1 F1800 X47.598 Y82.883 E0.93024
G1 X47.452 Y82.525 E0.94536
G1 X47.377 Y82.262 E0.95605
G1 X47.299 Y81.664 E0.97963
G1 X47.398 Y80.966 E1.0072
G1 X47.659 Y80.319 E1.03448
G1 X48.113 Y79.739 E1.06328
G1 X48.662 Y79.322 E1.09024
G1 X49.304 Y79.056 E1.11741
G1 X50.003 Y78.966 E1.14497
G1 X50.725 Y79.058 E1.17342
G1 X51.22 Y79.261 E1.19434
G1 X51.47 Y79.4 E1.20553
G1 X51.941 Y79.769 E1.22892
G1 X52.366 Y80.32 E1.25613
G1 X52.634 Y80.975 E1.28381
G1 X52.724 Y81.65 E1.31043
G1 X52.649 Y82.261 E1.3345
G1 X52.575 Y82.525 E1.34522
G1 X52.428 Y82.883 E1.36036
G1 X52.269 Y83.159 E1.37281
G1 X52.03 Y83.47 E1.38815
G1 X51.809 Y83.691 E1.40037
G1 X51.497 Y83.931 E1.41576
G1 X51.219 Y84.09 E1.42828
G1 F1771.4 X50.865 Y84.245 E1.44364
G1 F1448.8 X50.631 Y84.42 E1.45783
G1 F1249.6 X50.011 Y84.481 E1.49292
G1 F1253.2 X49.448 Y84.425 E1.5247
G1 F1475.2 X49.164 Y84.238 E1.54092
G1 F1800 X48.806 Y84.09 E1.55607
G1 X48.529 Y83.931 E1.56856
G1 X48.217 Y83.691 E1.58395
G1 X47.996 Y83.47 E1.59617
G1 X47.757 Y83.159 E1.61151
;;retract move;;
G1 F900 X47.598 Y82.883 E1.38351
G1 X47.452 Y82.525 E1.15551
G1 X47.377 Y82.262 E0.92751
G1 X47.299 Y81.664 E0.69951
G1 X47.358 Y81.248 E0.47151
G1 F1800 E0.41151
G0 F1125 X47.273 Y81.993 Z0.6
G0 X40.069 Y144.692
;TYPE:WALL-OUTER
G1 F600 Z0.2
G1 F1800 E1.61151
G1 X39.785 Y144.297 E1.62833
G1 X39.781 Y86.709 E3.61937
G1 X39.965 Y86.392 E3.63204
G1 X40.351 Y86.221 E3.64664
G1 X87.279 Y86.218 E5.26912
G1 X87.404 Y86.048 E5.27642
G1 X87.406 Y77.185 E5.58285
G1 X87.593 Y76.863 E5.59572
G1 X87.924 Y76.698 E5.60851
G1 X125.794 Y76.692 E6.91782
G1 X143.379 Y71.985 E7.54721
G1 X159.709 Y62.578 E8.19878
G1 X160.004 Y62.518 E8.20918
G1 X160.443 Y62.719 E8.22588
G1 X179.709 Y96.089 E9.55809
G1 X179.708 Y96.455 E9.57074
G1 X179.454 Y96.798 E9.5855
G1 X155.621 Y110.561 E10.53702
G1 X155.495 Y110.774 E10.54558
G1 X155.488 Y151.342 E11.94818
G1 X155.409 Y151.614 E11.95797
G1 X155.2 Y151.824 E11.96821
G1 X154.892 Y151.922 E11.97939
G1 X136.58 Y151.924 E12.6125
G1 X136.443 Y152.092 E12.62
G1 X136.441 Y153.821 E12.67978
G1 X136.152 Y154.222 E12.69687
G1 X135.838 Y154.303 E12.70808
G1 X117.557 Y154.311 E13.34012
G1 X117.393 Y154.509 E13.34901
G1 X117.392 Y158.58 E13.48976
G1 X117.127 Y158.952 E13.50555
G1 X116.816 Y159.063 E13.51697
G1 X97.468 Y159.068 E14.18591
G1 X97.169 Y158.921 E14.19743
G1 X96.932 Y158.632 E14.21035
G1 X96.931 Y154.519 E14.35255
G1 X96.782 Y154.307 E14.36151
G1 X78.476 Y154.305 E14.99442
G1 X78.176 Y154.22 E15.0052
G1 X77.887 Y153.832 E15.02193
G1 X77.881 Y144.906 E15.33053
G1 X77.71 Y144.782 E15.33784
G1 X40.384 Y144.779 E16.62834
G1 X40.069 Y144.692 E16.63964
G0 F1125 X39.905 Y145.135
;TYPE:WALL-INNER
G1 F1800 X39.69 Y144.98 E16.65001
G1 X39.389 Y144.572 E16.66983
G1 X39.304 Y144.315 E16.68041
G1 X39.303 Y86.583 E18.93782
G1 X39.525 Y86.193 E18.95537
G1 X39.711 Y85.98 E18.96642
G1 X40.246 Y85.743 E18.9893
G1 X86.926 Y85.74 E20.81456
G1 X86.928 Y77.241 E21.14688
G1 X87 Y76.934 E21.15921
G1 X87.187 Y76.617 E21.1736
G1 X87.392 Y76.431 E21.18443
G1 X87.781 Y76.217 E21.20179
G1 X125.731 Y76.214 E22.68569
G1 X143.195 Y71.54 E23.39259
G1 X159.538 Y62.126 E24.13006
G1 X159.924 Y62.05 E24.14544
G1 X160.188 Y62.072 E24.1558
G1 X160.652 Y62.287 E24.1758
G1 X160.892 Y62.541 E24.18946
G1 X180.092 Y95.798 E25.69101
G1 X180.186 Y96.107 E25.70364
G1 X180.183 Y96.462 E25.71752
G1 X180.118 Y96.709 E25.72751
G1 X179.776 Y97.165 E25.7498
G1 X155.973 Y110.91 E26.82456
G1 X155.969 Y151.391 E28.40743
G1 X155.823 Y151.887 E28.42764
G1 X155.397 Y152.292 E28.45063
G1 X154.894 Y152.401 E28.47075
G1 X136.92 Y152.401 E29.17356
G1 X136.919 Y153.747 E29.22619
G1 X136.876 Y154.028 E29.23731
G1 X136.523 Y154.528 E29.26124
G1 X136.3 Y154.673 E29.27164
G1 X135.929 Y154.78 E29.28674
G1 X117.87 Y154.788 E29.99287
G1 X117.868 Y158.57 E30.14075
G1 X117.806 Y158.818 E30.15075
G1 X117.466 Y159.303 E30.17391
G1 X117.164 Y159.462 E30.18725
G1 X116.862 Y159.544 E30.19949
G1 X97.522 Y159.546 E30.95571
G1 X97.245 Y159.49 E30.96676
G1 X96.873 Y159.308 E30.98295
G1 X96.549 Y158.928 E31.00248
G1 X96.453 Y158.663 E31.0135
G1 X96.453 Y154.784 E31.16518
G1 X78.407 Y154.783 E31.8708
G1 X78.033 Y154.672 E31.88605
G1 X77.782 Y154.498 E31.898
G1 X77.459 Y154.053 E31.9195
G1 X77.404 Y153.783 E31.93027
G1 X77.404 Y145.258 E32.26361
G1 X40.309 Y145.258 E33.71408
G1 X39.905 Y145.135 E33.73059
G0 F1125 X39.69 Y145.581
G1 F1800 X39.367 Y145.375 E33.74557
G1 X38.954 Y144.815 E33.77278
G1 X38.809 Y144.379 E33.79075
G1 X38.808 Y86.772 E36.04326
G1 X38.846 Y86.468 E36.05524
G1 X38.956 Y86.193 E36.06682
G1 X39.106 Y85.93 E36.07866
G1 X39.302 Y85.679 E36.09111
G1 X39.572 Y85.501 E36.10376
G1 X39.978 Y85.322 E36.12111
G1 X40.259 Y85.248 E36.13247
G1 X48.965 Y85.246 E36.47289
G1 F1475.2 X49.401 Y85.138 E36.49432
G1 F1278.3 X50.013 Y85.154 E36.52803
G1 F1272.9 X50.693 Y85.134 E36.56564
G1 F1448.8 X51.06 Y85.238 E36.58417
G1 F1771.4 X51.447 Y85.247 E36.59956
G1 F1800 X86.431 Y85.245 E37.96748
G1 X86.433 Y77.237 E38.28061
G1 X86.555 Y76.716 E38.30153
G1 X86.794 Y76.296 E38.32042
G1 X87.069 Y76.044 E38.33501
G1 X87.427 Y75.847 E38.35099
G1 X87.81 Y75.722 E38.36674
G1 X125.666 Y75.719 E39.84696
G1 X143.004 Y71.078 E40.54877
G1 X149.857 Y67.13 E40.85802
G1 F1463.1 X150.174 Y66.815 E40.87952
G1 F1260.3 X150.71 Y66.526 E40.91353
G1 F1262 X151.234 Y66.204 E40.94783
G1 F1463.1 X151.675 Y66.082 E40.96984
G1 F1800 X159.347 Y61.666 E41.31597
G1 X159.925 Y61.535 E41.33914
G1 X160.33 Y61.597 E41.35517
G1 X160.91 Y61.859 E41.38005
G1 X161.321 Y62.293 E41.40342
G1 X180.521 Y95.55 E42.90497
G1 X180.68 Y96.075 E42.92642
G1 X180.683 Y96.479 E42.94222
G1 X180.626 Y96.744 E42.95282
G1 X180.516 Y97.002 E42.96379
G1 X180.259 Y97.346 E42.98058
G1 X180.034 Y97.586 E42.99344
G1 X156.468 Y111.196 E44.05754
G1 X156.464 Y151.442 E45.63121
G1 X156.336 Y151.923 E45.65068
G1 X156.176 Y152.228 E45.66414
G1 X155.755 Y152.648 E45.6874
G1 X155.278 Y152.841 E45.70752
G1 X154.912 Y152.896 E45.72199
G1 X137.415 Y152.896 E46.40615
G1 X137.414 Y153.748 E46.43946
G1 X137.358 Y154.111 E46.45382
G1 X137.253 Y154.348 E46.46396
G1 X136.877 Y154.882 E46.48949
G1 X136.5 Y155.128 E46.5071
G1 X136.005 Y155.274 E46.52728
G1 X118.365 Y155.283 E47.21703
G1 X118.361 Y158.674 E47.34962
G1 X118.25 Y159.046 E47.3648
G1 X117.804 Y159.674 E47.39492
G1 X117.301 Y159.937 E47.41711
G1 X116.921 Y160.039 E47.4325
G1 X97.522 Y160.041 E48.19102
G1 X96.975 Y159.931 E48.21284
G1 X96.545 Y159.683 E48.23225
G1 X96.121 Y159.188 E48.25774
G1 X95.958 Y158.736 E48.27652
G1 X95.958 Y155.279 E48.4117
G1 X78.511 Y155.278 E49.0939
G1 X78.196 Y155.237 E49.10632
G1 X77.733 Y155.095 E49.12526
G1 X77.419 Y154.836 E49.14117
G1 X77.11 Y154.415 E49.16159
G1 X76.981 Y154.158 E49.17284
G1 X76.91 Y153.808 E49.1868
G1 X76.909 Y145.753 E49.50176
G1 X40.229 Y145.752 E50.936
G1 X39.69 Y145.581 E50.95811
;;retract move;;
G1 F900 X39.367 Y145.375 E50.67311
G1 X38.954 Y144.815 E50.38811
G1 X38.809 Y144.379 E50.10311
G1 X38.809 Y143.916 E49.81811
G1 F1800 E49.75811
G0 F1125 X39.5 Y144.207 Z0.6
G0 X49.143 Y148.269
;TYPE:WALL-OUTER
G1 F600 Z0.2
G1 F1800 E50.95811
G1 X49.561 Y148.098 E50.97373
G1 X50.01 Y148.038 E50.98939
G1 X50.459 Y148.098 E51.00505
G1 X50.877 Y148.269 E51.02067
G1 X51.236 Y148.546 E51.03634
G1 X51.512 Y148.904 E51.05197
G1 X51.68 Y149.317 E51.06739
G1 X51.742 Y149.771 E51.08323
G1 X51.685 Y150.205 E51.09836
G1 X51.503 Y150.648 E51.11492
G1 X51.239 Y150.992 E51.12992
G1 X50.863 Y151.278 E51.14625
G1 X50.467 Y151.44 E51.16104
G1 X50.008 Y151.504 E51.17706
G1 X49.564 Y151.443 E51.19256
G1 X49.139 Y151.268 E51.20845
G1 X48.772 Y150.982 E51.22454
G1 X48.512 Y150.64 E51.23939
G1 X48.337 Y150.222 E51.25506
G1 X48.277 Y149.77 E51.27082
G1 X48.34 Y149.316 E51.28667
G1 X48.508 Y148.904 E51.30205
G1 X48.784 Y148.546 E51.31768
G1 X49.143 Y148.269 E51.33336
G0 F1125 X48.904 Y147.85
;TYPE:WALL-INNER
G1 F1800 X49.434 Y147.633 E51.35575
G1 X50.009 Y147.557 E51.37843
G1 X50.585 Y147.632 E51.40114
G1 X51.116 Y147.85 E51.42359
G1 X51.578 Y148.205 E51.44637
G1 X51.931 Y148.665 E51.46904
G1 X52.15 Y149.214 E51.49215
G1 X52.224 Y149.772 E51.51416
G1 X52.147 Y150.352 E51.53704
G1 X51.933 Y150.869 E51.55892
G1 X51.587 Y151.327 E51.58136
G1 X51.122 Y151.686 E51.60433
G1 X50.577 Y151.909 E51.62736
G1 X50.019 Y151.985 E51.64938
G1 X49.418 Y151.903 E51.6731
G1 X48.916 Y151.696 E51.69433
G1 X48.443 Y151.337 E51.71755
G1 X48.084 Y150.863 E51.7408
G1 X47.871 Y150.346 E51.76266
G1 X47.797 Y149.763 E51.78564
G1 X47.87 Y149.211 E51.80741
G1 X48.089 Y148.664 E51.83045
G1 X48.442 Y148.205 E51.85309
G1 X48.904 Y147.85 E51.87588
G0 F1125 X48.526 Y147.516
G1 F1800 X48.803 Y147.356 E51.88838
G1 X49.161 Y147.21 E51.9035
G1 X49.41 Y147.137 E51.91365
G1 X50.011 Y147.056 E51.93736
G1 X50.56 Y147.13 E51.95902
G1 X50.859 Y147.209 E51.97111
G1 X51.216 Y147.356 E51.98621
G1 X51.493 Y147.516 E51.99872
G1 X51.806 Y147.756 E52.01414
G1 X52.026 Y147.976 E52.02631
G1 X52.265 Y148.288 E52.04167
G1 X52.424 Y148.564 E52.05413
G1 X52.631 Y149.069 E52.07547
G1 X52.708 Y149.653 E52.0985
G1 X52.703 Y149.93 E52.10933
G1 X52.642 Y150.377 E52.12697
G1 X52.571 Y150.622 E52.13695
G1 X52.369 Y151.112 E52.15767
G1 X51.932 Y151.69 E52.18601
G1 X51.369 Y152.119 E52.21368
G1 X50.719 Y152.389 E52.2412
G1 X50.025 Y152.483 E52.26859
G1 X49.314 Y152.394 E52.29661
G1 X48.678 Y152.134 E52.32347
G1 X48.091 Y151.691 E52.35223
G1 X47.658 Y151.129 E52.37997
G1 X47.448 Y150.619 E52.40154
G1 X47.37 Y150.331 E52.4132
G1 X47.297 Y149.756 E52.43587
G1 X47.395 Y149.054 E52.46358
G1 X47.596 Y148.564 E52.48429
G1 X47.755 Y148.288 E52.49674
G1 X47.994 Y147.977 E52.51208
G1 X48.214 Y147.756 E52.52427
G1 X48.526 Y147.516 E52.53967
;;retract move;;
G1 F900 X48.803 Y147.356 E52.31167
G1 X49.161 Y147.21 E52.08367
G1 X49.41 Y147.137 E51.85567
G1 X50.011 Y147.056 E51.62767
G1 X50.437 Y147.113 E51.39967
G1 F1800 E51.33967
G0 F1125 X51.171 Y147.267 Z0.6
G0 X72.982 Y151.848
;TYPE:WALL-OUTER
G1 F600 Z0.2
G1 F1800 E52.53967
G1 X72.514 Y151.042 E52.57189
G1 X71.901 Y150.374 E52.60324
G1 X71.205 Y149.877 E52.6328
G1 X70.375 Y149.515 E52.66411
G1 X69.486 Y149.339 E52.69544
G1 X60.88 Y149.319 E52.99299
G1 X59.931 Y149.43 E53.02602
G1 X59.019 Y149.761 E53.05957
G1 X58.208 Y150.291 E53.09306
G1 X57.536 Y150.994 E53.12669
G1 X57.044 Y151.826 E53.1601
G1 X56.511 Y153.043 E53.20604
